src/img/icon--instructions.svg

<svg width="19" height="19" viewBox="0 0 19 19" fill="none" xmlns="http://www.w3.org/2000/svg">
<path d="M2.375 7.91634C2.375 4.93097 2.375 3.43788 3.30283 2.51084C4.22987 1.58301 5.72296 1.58301 8.70833 1.58301H10.2917C13.277 1.58301 14.7701 1.58301 15.6972 2.51084C16.625 3.43788 16.625 4.93097 16.625 7.91634V11.083C16.625 14.0684 16.625 15.5615 15.6972 16.4885C14.7701 17.4163 13.277 17.4163 10.2917 17.4163H8.70833C5.72296 17.4163 4.22987 17.4163 3.30283 16.4885C2.375 15.5615 2.375 14.0684 2.375 11.083V7.91634Z" stroke="white" stroke-width="1.5"/>
<path d="M6.3335 9.49967H12.6668M6.3335 6.33301H12.6668M6.3335 12.6663H10.2918" stroke="white" stroke-width="1.5" stroke-linecap="round"/>
</svg>

<svg width="19" height="19" fill="none" xmlns="http://www.w3.org/2000/svg"><path d="M2.375 7.916c0-2.985 0-4.478.928-5.405.927-.928 2.42-.928 5.405-.928h1.584c2.985 0 4.478 0 5.405.928.928.927.928 2.42.928 5.405v3.167c0 2.985 0 4.479-.928 5.405-.927.928-2.42.928-5.405.928H8.708c-2.985 0-4.478 0-5.405-.928-.928-.926-.928-2.42-.928-5.405V7.916Z" stroke="#fff" stroke-width="1.5"/><path d="M6.333 9.5h6.334M6.334 6.333h6.333m-6.333 6.333h3.958" stroke="#fff" stroke-width="1.5" stroke-linecap="round"/></svg>
